icon-themes/breeze_svg/cmd/sc_cleararrowprecedents.svg

<svg viewBox="0 0 16 16" xmlns="http://www.w3.org/2000/svg"><path d="m2 2v5h4.8886719l.1113281-.1113281v-.8886719-3-1zm11.3125 0-11.3144531 11.294922.7148437.705078 11.2851564-11.3027344zm-10.3125 1h3v3h-3zm9.115234 3-1 1h1.884766v2h-2v1h3v-4zm-10.115234 3v2.878906l1-.998047v-.880859h.8828125l1.0019531-1zm5 2.123047-1 1v.876953h-.875l-.9980469 1h2.8730469v-1z" fill="#4d4d4d"/><path d="m8 3.28125-.6875.71875 1.2890625 1.2890625.6875-.6875-.6015625-.6015625zm1.1191406 5.71875-.5585937.5605469.5957031.5957031-1.84375 1.84375.6875.683594.6875-.683594 1.15625-1.15625 1.15625 1.15625v-3z" fill="#1d99f3"/></svg>

<svg viewBox="0 0 16 16" xmlns="http://www.w3.org/2000/svg">
  <path
     style="fill:#4d4d4d"
     d="M 2 2 L 2 7 L 6.8886719 7 L 7 6.8886719 L 7 6 L 7 3 L 7 2 L 2 2 z M 13.3125 2 L 1.9980469 13.294922 L 2.7128906 14 L 13.998047 2.6972656 L 13.3125 2 z M 3 3 L 6 3 L 6 6 L 3 6 L 3 3 z M 12.115234 6 L 11.115234 7 L 13 7 L 13 9 L 11 9 L 11 10 L 14 10 L 14 6 L 12.115234 6 z M 2 9 L 2 11.878906 L 3 10.880859 L 3 10 L 3.8828125 10 L 4.8847656 9 L 2 9 z M 7 11.123047 L 6 12.123047 L 6 13 L 5.125 13 L 4.1269531 14 L 7 14 L 7 13 L 7 11.123047 z "
     />
  <path
     style="fill:#1d99f3"
     d="M 8 3.28125 L 7.3125 4 L 8.6015625 5.2890625 L 9.2890625 4.6015625 L 8.6875 4 L 8 3.28125 z M 9.1191406 9 L 8.5605469 9.5605469 L 9.15625 10.15625 L 7.3125 12 L 8 12.683594 L 8.6875 12 L 9.84375 10.84375 L 11 12 L 11 9 L 9.1191406 9 z "
     />
</svg>
